!!!COM: Augusta Holme\s
!!!CNT: Francais
!!!TXO: Francais
!!!OTL: "Se/re/nade printanie\re"
!!!LYR: 
!!!OPR: Les Se/re/nades
!!!OPS: Op. 
!!!ONM: No. 1
!!!ENC: Alyona Dzerbina
!!!YOR: Augusta Holme\s, Se/re/nade printanie\re
!!!YOR: Da Capo Press, New York, 1984
!!!ODT: 1883/
!!NB: Vocal melody and text encoded.
**kern	**text
*staff1	*staff1
=1-	=1-
*clefG2	*
*k[f#c#]	*
*M3/4	*
2.r	.
=2	=2
4r	.
4r	.
8r	.
{(8f#	{Hi-
=3	=3
4.a	-er
8f#	comme
8e	au-
8d	-jour-
=4	=4
[2a)	-d'hui,
8a]	|
(8dd	ce
=5	=5
4.ee	soir
8dd	com-
8a	-me
8f#	de-
=6	=6
16a)	-main,
16r	.
(16f#	Je
16g	t'a-
4f#	do
8e)}	-re!}
8r	.
=7	=7
4r	.
12r	.
{(12e	{Quand
12f#)	je
(12g	vois
12e	ton
12c#)	re-
=8	=8
[4f#	-gard,
(12f#]	|
12f#	quand
12g)	je
(12a	fro^-
12f#	-le
12d)	ta
=9	=9
8b	main,
8r	.
(4.dd	C'est
8dd	l'au-
=10	=10
4a	-ro-
[4e)	-re!
8e]}	|}
8r	.
=11	=11
8r	.
{8f#	{Qui
4a	done
(12f#	nous
12e	a-
12d)	-vait
=12	=12
[4a	dit
(12a]	|
12d	que
12e)	le
(12f#	monde
12g	est
12a)	me/-
=13	=13
8b-}	-chant,}
8r	.
{(4.dd	{Que
8b-	l'en
=14	=14
4ee-	souf-
24a)	-fre,
24r	.
(12f#	Que
12g)	la
(12a	vie
12b-	est
12cc#)	un
=15	=15
(12dd-	pont
12r	.
12ffn)	qui
4gg	trem-
4ff	-ble,
=16	=16
12r	.
(12ccn	se
12a	pen-
4fn	-chant
8.f	Sur
16g	on
=17	=17
4fn	gouf-
4e)}	-fre?}
8r	.
{(8f#	{Ou\
=18	=18
4.g	done
8e	sont
8d	les
8c#	en-
=19	=19
[4f#)	-nuis,
8f#]	|
8r	.
(8e	les
8d	er-
=20	=20
4b	-reurs,
4g)	|
(8f#	les
8e	dan-
=21	=21
4ccn	-gers,
4a)	|
8g	Les
8f#	de/-
=22	=22
2gg	-sas-
(4dd	-tres?
=23	=23
[4dd)	|
8dd]}	|}
8r	.
8r	.
{8f#	{A-
=24	=24
[2a	-vril
8a]	|
8dd	ga-
=25	=25
!!This measure corrected by best guess
8ee	-zouille
8dd	et
(16a	rit
16r	.
16e	dans
16g)	les
(12f#	tend-
12e	-res
12d)	ver-
=26	=26
8a	-gers
(16f#	Fleu-
16g	-ris
2e	d'as-
=27	=27
[4d)	-tres!
8d]}	|}
8r	.
4r	.
=28	=28
2.r	.
=29	=29
2.r	.
=30	=30
2.r	.
=31	=31
4r	.
4r	.
8r	.
{8f#	{Le
=32	=32
8a	somb-
8f#	-re
4.e	hiver
8d	a
=33	=33
2a	fui;
12f#	le
12a	ra-
12dd	-di-
=34	=34
8ee	-eux
8dd	prin-
[4a	-temps
8a]	|
(16f#	Nous
16g	de/-
=35	=35
4f#	-li-
4e)}	-vre.}
4r	.
=36	=36
4r	.
12r	.
{(12e	{Viens
12f#)	me^-
(12g	-ler
12e	a\
12c#)	mes
=37	=37
[4f#	pleurs
(12f#]	|
12f#	tes
12g)	hai-
(12a	-sers
12f#	ha-
12d)	-le-
=38	=38
8b	-tauts,
8r	.
(4.dd	Je
8dd	veux
=39	=39
4a	vi-
[2e)	-vre!
=40	=40
4e]}	|}
4r	.
8r	.
{(8a	{Nos
=41	=41
4.ccn	coeurs
8a	sont
8g	con-
8fn	-fon-
=42	=42
[2ccn)	-dus,
8cc]	|
(8ffn	nos
=43	=43
4.gg	a^-
8ffn	-mes
8ccn	pour
8a	tou-
=44	=44
8ccn	-jours
16a	Sont
16b-	u-
4a	-ni-
4g)}	-es;}
=45	=45
4r	.
12r	.
{(12fn	{Nous
12a)	a-
(12dd	-vons
12ee	e/-
12ffn)	-pe-
=46	=46
8ee	-le/
8dd	le
4a	li-
12f#	-vre
12e	des
12d	a-
=47	=47
8a	-mours
16f#	In-
16g	-fi-
2e	-ni-
=48	=48
[4d	-es!
8d]}	|}
8r	.
4r	.
=49	=49
{4g	{Et
8g	je
8g	ne
8g	vois
8g	plus
=50	=50
2f#	rien
8.e	que
16d	l'e/-
=51	=51
2dd	-clair
8ccn	de
8b-	tes
=52	=52
8a	yeux
16f#	Pleins
16g	de
4f#	fie\-
8e}	-vres...}
8r	.
=53	=53
{[4ff#	{Viens!
(8ff#]	|
8a	je
12b-	veux
12dd	sou-
12gg	-pi-
=54	=54
6ff#	-rer
12f#)	|
(12ee	les
12dd)	|
12a	su-
(12f#	-pre^-
12e	-mes
12d	a-
=55	=55
8a)	-veux
(16f#	Sur-
16g	-tes
2e	le\-
=56	=56
[4d)	-vres!...
8d]}	|}
8r	.
4r	.
=57	=57
2.r	.
=58	=58
2.r	.
=59	=59
2.r	.
=60	=60
2.r	.
==	==
*-	*-
